images/class__12.svg

<svg width="71" height="48" viewBox="0 0 71 48" fill="none" xmlns="http://www.w3.org/2000/svg">
<path d="M3.73633 4.88958V0.236593C3.73633 0.0788642 3.81519 0 3.97292 0H5.39248C5.55021 0 5.62907 0.157728 5.62907 0.236593V5.04731" stroke="#26303B" stroke-width="0.75" stroke-miterlimit="10"/>
<path d="M10.5974 5.12618V0.394321C10.5974 0.0788642 10.6763 0 10.834 0H12.2536C12.4113 0 12.4902 0.0788642 12.4902 0.236593V4.96845" stroke="#26303B" stroke-width="0.75" stroke-miterlimit="10"/>
<path d="M5.39258 4.96826H10.8342" stroke="#26303B" stroke-width="0.75" stroke-miterlimit="10"/>
<path d="M5.2347 20.5046C5.2347 23.186 3.57855 25.3154 1.44922 25.3154" stroke="#26303B" stroke-width="0.75" stroke-miterlimit="10"/>
<path d="M10.8342 20.5046C10.8342 23.186 12.4904 25.3154 14.6197 25.3154" stroke="#26303B" stroke-width="0.75" stroke-miterlimit="10"/>
<path d="M7.91616 29.574L6.18115 46.5298" stroke="#26303B" stroke-width="0.75" stroke-miterlimit="10" stroke-linecap="round"/>
<path d="M12.4902 4.96826C12.4902 6.93987 13.5943 8.43829 14.935 8.43829" stroke="#26303B" stroke-width="0.75" stroke-miterlimit="10"/>
<path d="M3.73629 4.88989C3.73629 6.8615 2.71105 8.51765 1.37036 8.51765" stroke="#26303B" stroke-width="0.75" stroke-miterlimit="10"/>
<path d="M1.37038 8.51709L1.21265 18.7694" stroke="#26303B" stroke-width="0.75" stroke-miterlimit="10" stroke-linecap="round"/>
<path d="M14.856 8.51709L14.7771 18.7694" stroke="#26303B" stroke-width="0.75" stroke-miterlimit="10" stroke-linecap="round"/>
<path d="M1.21265 18.7698H14.6984" stroke="#26303B" stroke-width="0.75" stroke-miterlimit="10" stroke-linecap="round"/>
<path d="M14.6196 20.5047H1.37038C1.29151 20.5047 1.21265 20.4258 1.21265 20.3469V18.8485C1.21265 18.7697 1.29151 18.6908 1.37038 18.6908H14.6196C14.6984 18.6908 14.7773 18.7697 14.7773 18.8485V20.3469C14.7773 20.5047 14.6984 20.5047 14.6196 20.5047Z" stroke="#26303B" stroke-width="0.75" stroke-miterlimit="10"/>
<path d="M10.9918 15.1418H5.23469C5.07697 15.1418 4.9981 15.0629 4.9981 14.9052L4.1306 10.8042C4.05173 10.6465 4.20946 10.4888 4.36719 10.4888H11.7804C11.9382 10.4888 12.0959 10.6465 12.017 10.8042L11.2284 14.9052C11.2284 15.0629 11.1495 15.1418 10.9918 15.1418Z" stroke="#26303B" stroke-width="0.75" stroke-miterlimit="10"/>
<path d="M1.44924 20.5046L1.21265 47.9494" stroke="#26303B" stroke-width="0.75" stroke-miterlimit="10" stroke-linecap="round"/>
<path d="M14.6196 20.5046L14.4619 46.1355" stroke="#26303B" stroke-width="0.75" stroke-miterlimit="10" stroke-linecap="round"/>
<path d="M9.49331 46.5298L7.83716 29.574" stroke="#26303B" stroke-width="0.75" stroke-miterlimit="10" stroke-linecap="round"/>
<path d="M6.18109 46.2142L6.02337 48.2646C6.02337 48.5801 5.78677 48.8167 5.47131 48.8167H1.7647C1.44924 48.8167 1.21265 48.5801 1.21265 48.2646V45.6621" stroke="#26303B" stroke-width="0.75" stroke-miterlimit="10"/>
<path d="M9.49341 46.1353L9.57227 48.1858C9.57227 48.5012 9.80887 48.7378 10.1243 48.7378H13.8309C14.1464 48.7378 14.383 48.5012 14.383 48.1858V45.5833" stroke="#26303B" stroke-width="0.75" stroke-miterlimit="10"/>
<path d="M57.4429 15.3787C69.8246 26.814 71.4807 40.6152 68.9571 46.8455" stroke="#2D333D" stroke-width="0.75" stroke-miterlimit="10" stroke-linecap="round"/>
<path d="M45.2978 15.3787C32.9161 26.814 31.1811 40.4575 33.7836 46.7666" stroke="#2D333D" stroke-width="0.75" stroke-miterlimit="10" stroke-linecap="round"/>
<path d="M42.4586 6.3092C41.8277 1.81394 49.0832 1.0253 51.6857 4.88965" stroke="#2D333D" stroke-width="0.75" stroke-miterlimit="10" stroke-linecap="round"/>
<path d="M60.1243 6.30911C59.5722 2.28704 54.5249 0.946346 51.3704 4.25864" stroke="#2D333D" stroke-width="0.75" stroke-miterlimit="10" stroke-linecap="round"/>
<path d="M42.4587 6.30933C44.6669 10.4103 44.9035 13.1705 45.2979 15.2998" stroke="#2D333D" stroke-width="0.75" stroke-miterlimit="10" stroke-linecap="round"/>
<path d="M60.124 6.30933C57.6792 10.8046 57.7581 13.6437 57.5215 15.221" stroke="#2D333D" stroke-width="0.75" stroke-miterlimit="10" stroke-linecap="round"/>
<path d="M57.8372 24.448C57.4429 25 57.0485 25.3944 57.2063 26.3407C57.5217 27.918 59.1779 27.5237 59.4933 29.101C59.8088 30.6783 58.0738 30.9937 58.3892 32.4922C58.7047 34.0694 60.3608 33.6751 60.6763 35.2524C60.9917 36.8297 59.2567 37.1451 59.5722 38.6436C59.8876 40.2208 61.5438 39.8265 61.8593 41.4038C62.1747 42.9811 60.4397 43.2966 60.7552 44.795" stroke="#2D333D" stroke-width="0.75" stroke-miterlimit="10" stroke-linecap="round"/>
<path d="M55.55 29.4163C55.7866 30.5204 54.1305 30.8358 54.2882 31.8611C54.5248 32.9652 56.1809 32.5708 56.4175 33.6749C56.6541 34.779 54.998 35.0945 55.1557 36.1197C55.3923 37.2238 57.0485 36.8295 57.285 37.9336C57.5216 39.0377 55.8655 39.3532 56.0232 40.3784C56.2598 41.4825 57.916 41.0882 58.1526 42.1923C58.3891 43.2964 56.733 43.6118 56.8907 44.6371" stroke="#2D333D" stroke-width="0.75" stroke-miterlimit="10" stroke-linecap="round"/>
<path d="M41.5912 31.4668C41.1968 32.5709 39.5407 32.0188 39.2252 33.1229C38.8309 34.227 40.4871 34.7791 40.0927 35.8832C39.6984 36.9873 38.0423 36.4352 37.7268 37.5393C37.3325 38.6434 38.9887 39.1955 38.5943 40.2996C38.2 41.4037 36.5439 40.8516 36.2284 41.9557C35.8341 43.0598 37.4902 43.6119 37.0959 44.716C36.7016 45.8201 35.0454 45.268 34.73 46.3721" stroke="#2D333D" stroke-width="0.75" stroke-miterlimit="10" stroke-linecap="round"/>
<path d="M33.9414 46.7665C35.2032 46.7665 35.2032 47.3974 36.4651 47.3974C37.7269 47.3974 37.7269 46.7665 38.9887 46.7665C40.2505 46.7665 40.2505 47.3974 41.5124 47.3974C42.7742 47.3974 42.7742 46.7665 44.036 46.7665C45.2979 46.7665 45.2979 47.3974 46.5597 47.3974C47.8215 47.3974 47.8215 46.7665 49.0833 46.7665C50.3452 46.7665 50.3452 47.3974 51.607 47.3974C52.8688 47.3974 52.8688 46.7665 54.1306 46.7665C55.3925 46.7665 55.3925 47.3974 56.6543 47.3974C57.9161 47.3974 57.9161 46.7665 59.178 46.7665C60.4398 46.7665 60.4398 47.3974 61.7016 47.3974C62.9634 47.3974 62.9634 46.7665 64.2253 46.7665C65.4871 46.7665 65.4871 47.3974 66.7489 47.3974C68.0108 47.3974 68.0108 46.7665 69.2726 46.7665" stroke="#2D333D" stroke-width="0.75" stroke-miterlimit="10" stroke-linecap="round"/>
<path d="M45.771 15.3787C50.0297 17.5869 54.3672 16.2462 57.2063 15.3787" stroke="#2D333D" stroke-width="0.75" stroke-miterlimit="10" stroke-linecap="round"/>
</svg>

<svg width="71" height="48" fill="none" xmlns="http://www.w3.org/2000/svg"><path d="M3.736 4.89V.237c0-.158.08-.237.237-.237h1.42c.157 0 .236.158.236.237v4.81M10.597 5.126V.394c0-.315.08-.394.237-.394h1.42c.157 0 .236.079.236.237v4.731M5.393 4.968h5.441M5.235 20.505c0 2.681-1.656 4.81-3.786 4.81M10.834 20.505c0 2.681 1.656 4.81 3.786 4.81" stroke="#26303B" stroke-width=".75" stroke-miterlimit="10"/><path d="M7.916 29.574 6.181 46.53" stroke="#26303B" stroke-width=".75" stroke-miterlimit="10" stroke-linecap="round"/><path d="M12.49 4.968c0 1.972 1.104 3.47 2.445 3.47M3.736 4.89c0 1.972-1.025 3.628-2.366 3.628" stroke="#26303B" stroke-width=".75" stroke-miterlimit="10"/><path d="M1.37 8.517 1.213 18.77M14.856 8.517l-.079 10.252M1.213 18.77h13.485" stroke="#26303B" stroke-width=".75" stroke-miterlimit="10" stroke-linecap="round"/><path d="M14.62 20.505H1.37a.17.17 0 0 1-.157-.158v-1.498a.17.17 0 0 1 .157-.158h13.25a.17.17 0 0 1 .157.158v1.498c0 .158-.079.158-.157.158ZM10.992 15.142H5.235c-.158 0-.237-.08-.237-.237l-.867-4.1c-.08-.159.078-.316.236-.316h7.413c.158 0 .316.157.237.315l-.789 4.101c0 .158-.079.237-.236.237Z" stroke="#26303B" stroke-width=".75" stroke-miterlimit="10"/><path d="m1.45 20.505-.237 27.444M14.62 20.505l-.158 25.63M9.493 46.53 7.837 29.574" stroke="#26303B" stroke-width=".75" stroke-miterlimit="10" stroke-linecap="round"/><path d="m6.181 46.214-.158 2.05a.54.54 0 0 1-.552.553H1.765a.54.54 0 0 1-.552-.552v-2.603M9.493 46.135l.08 2.05a.54.54 0 0 0 .551.553h3.707a.54.54 0 0 0 .552-.552v-2.603" stroke="#26303B" stroke-width=".75" stroke-miterlimit="10"/><path d="M57.443 15.379C69.825 26.814 71.48 40.615 68.957 46.845M45.298 15.379C32.916 26.814 31.18 40.458 33.784 46.767M42.459 6.31c-.631-4.496 6.624-5.285 9.227-1.42M60.124 6.31c-.552-4.023-5.6-5.364-8.754-2.051M42.459 6.31c2.208 4.1 2.444 6.86 2.839 8.99M60.124 6.31c-2.445 4.495-2.366 7.334-2.602 8.911M57.837 24.448c-.394.552-.789.946-.63 1.893.315 1.577 1.97 1.183 2.286 2.76.316 1.577-1.42 1.893-1.104 3.391.316 1.577 1.972 1.183 2.287 2.76.316 1.578-1.42 1.893-1.104 3.392.316 1.577 1.972 1.183 2.287 2.76.316 1.577-1.42 1.893-1.104 3.391M55.55 29.416c.237 1.104-1.42 1.42-1.262 2.445.237 1.104 1.893.71 2.13 1.814.236 1.104-1.42 1.42-1.262 2.445.236 1.104 1.892.71 2.129 1.814.237 1.104-1.42 1.42-1.262 2.444.237 1.105 1.893.71 2.13 1.814.236 1.104-1.42 1.42-1.262 2.445M41.591 31.467c-.394 1.104-2.05.552-2.366 1.656-.394 1.104 1.262 1.656.868 2.76-.395 1.104-2.05.552-2.366 1.656-.394 1.104 1.262 1.657.867 2.76-.394 1.105-2.05.553-2.366 1.657-.394 1.104 1.262 1.656.868 2.76-.394 1.104-2.05.552-2.366 1.656" stroke="#2D333D" stroke-width=".75" stroke-miterlimit="10" stroke-linecap="round"/><path d="M33.941 46.767c1.262 0 1.262.63 2.524.63s1.262-.63 2.524-.63 1.262.63 2.523.63c1.262 0 1.262-.63 2.524-.63s1.262.63 2.524.63c1.261 0 1.261-.63 2.523-.63 1.262 0 1.262.63 2.524.63s1.262-.63 2.524-.63c1.261 0 1.261.63 2.523.63 1.262 0 1.262-.63 2.524-.63s1.262.63 2.524.63c1.261 0 1.261-.63 2.523-.63 1.262 0 1.262.63 2.524.63s1.262-.63 2.524-.63M45.771 15.379c4.259 2.208 8.596.867 11.435 0" stroke="#2D333D" stroke-width=".75" stroke-miterlimit="10" stroke-linecap="round"/></svg>
